X: 0
T: Wachet Auf!
Z: P. Nicolai, 1556-1608
Z: Copyright © 2006 by Douglas D. Anderson
Z: Released To The Public Domain
L: 1/4
M: none
Q: 1/4=156
V: P1 name="Church Organ"
%%MIDI program 1 19
V: P2 name="French Horn"
%%MIDI program 2 60
V: P3 name="Trombone"
%%MIDI program 3 57
V: P4 name="Tuba"
%%MIDI program 4 58
K: D
[V: P1] ||: D2 F2 A2 A2 | A2 A2 B4 | A6 | A2 d2 A2 (d e) f2 | e2 d2 (c2 B2) | A6 | A2 d2 A2 B2 F2 | (G F) E2 D2 :|| A2 | A3 G F2 E2 | D6 | A2 | A3 G F2 E2 | D4 | E2 F2 | G4 F2 | A2 | B2 c2 d2 (d e) | f2 e2 d2 | A2 | d2 A2 B2 F2 | (G F) E2 D4|]
[V: P2] ||: A,2 D2 F2 E2 | F2 E2 (F2 E2) | E6 | E2 A3 G (F G) A2 | A2 B2 (B A2 ^G) | E6 | F2 G2 F2 D2 D2 | D2 C2 A,2 :|| E2 | F3 E (A, B,) C2 | B,6 | (C D) | E2 E2 (E D2) C | A,4 | C2 D2 | (D2 C2) D2 | F2 | (F E) (E F) F2 (F G) | A3 G F2 | (F G) | (A G) (A F) G2 D2 | D2 C2 A,4|]
[V: P3] ||: F,2 A,2 D2 C2 | D2 A,2 (A,2 ^G,2) | C6 | C2 D2 D2 A,2 D2 | E2 E2 (E3 B,) | C6 | D2 D2 (D =C) B,2 B,2 | (B, A,) G,2 F,2 :|| A,2 | (D C) (B, C) D2 (A, G,) | F,6 | A,2 | (A, B,) C2 (A, B,2) A, | F,4 | A,2 A,2 | (B,2 G,2) A,2 | D2 | D2 C2 B,2 D2 | D2 C2 D2 | D2 | A,2 D2 D3 B, | (B, A,) G,2 F,4|]
[V: P4] ||: D,2 D,2 (D, F,) (A, G,) | (F, E,) (D, C,) (D, C,) E,2 | A,,6 | (A, G,) (F, G,) (F, E,) D,2 D2 | (C B,) (A, ^G,) (A,2 E,2) | A,,6 | (D, =C,) (B,, ^C,) D,2 (G, A,) B,2 | E,2 A,,2 D,2 :|| C,2 | D,2 E,2 (F, G,) (A, A,,) | B,,6 | F,2 | (C, B,,) A,,2 (D, B,,) (G,, A,,) | D,4 | (A, G,) F,2 | E,4 D,2 | D2 | ^G,2 ^A,2 B,2 B,2 | (F, G,) A,2 B,,2 | (D, E,) | (F, E,) (F, E,) (G,, A,,) B,,2 | E,2 A,,2 D,4|]

